img/placeholder.svg

<?xml version="1.0" encoding="UTF-8"?>
<!-- Generated by Pixelmator Pro 3.2.2 -->
<svg width="500" height="750" viewBox="0 0 500 750" xmlns="http://www.w3.org/2000/svg" xmlns:xlink="http://www.w3.org/1999/xlink">
	<path id="Rettangolo" fill="#d5d5d5" fill-rule="evenodd" stroke="none" d="M 0 750 L 500 750 L 500 0 L 0 0 Z"/>
	<path id="frame" fill="#646464" fill-rule="evenodd" stroke="none" d="M 92.206673 513.798523 C 83.446213 513.798523 76.541084 511.273865 71.491844 506.224365 C 66.442604 501.174805 63.917698 494.209229 63.917698 485.326996 L 63.917698 474.193939 L 119.948128 425.281342 C 123.963326 421.75293 128.100021 419.07605 132.358765 417.250977 C 136.617523 415.425842 140.754196 414.513336 144.769409 414.513336 C 154.259918 414.513336 163.020355 418.224243 171.050781 425.646393 L 205.910095 457.038025 L 293.149628 379.653992 C 302.031586 371.866821 311.82663 367.973389 322.533661 367.973389 C 327.522461 367.973389 332.541473 368.946686 337.590698 370.893524 C 342.639923 372.840393 347.293945 375.821289 351.552704 379.836487 L 435.50705 457.585541 L 435.50705 485.691986 C 435.50705 494.452454 432.982147 501.327087 427.932922 506.315552 C 422.883667 511.304077 416.039581 513.798523 407.400604 513.798523 Z M 171.415802 379.653992 C 163.141846 379.653992 155.598495 377.615875 148.784622 373.539917 C 141.970734 369.463959 136.526245 364.018921 132.450027 357.205322 C 128.373795 350.391724 126.335945 342.847809 126.335945 334.574158 C 126.335945 326.300476 128.373795 318.756561 132.450027 311.942963 C 136.526245 305.129364 141.970734 299.684326 148.784622 295.608368 C 155.598495 291.53241 163.141846 289.494293 171.415802 289.494293 C 179.567703 289.494293 187.050598 291.53241 193.864471 295.608368 C 200.678329 299.684326 206.122833 305.129364 210.199081 311.942963 C 214.275299 318.756561 216.313141 326.300476 216.313141 334.574158 C 216.313141 342.847809 214.275299 350.391724 210.199081 357.205322 C 206.122833 364.018921 200.678329 369.463959 193.864471 373.539917 C 187.050598 377.615875 179.567703 379.653992 171.415802 379.653992 Z M 91.841652 543 L 407.583099 543 C 426.807648 543 441.164856 538.285278 450.655334 528.855469 C 460.145844 519.425781 464.891083 505.342285 464.891083 486.604584 L 464.891083 263.577972 C 464.891083 244.84021 460.145844 230.726257 450.655334 221.235779 C 441.164856 211.745239 426.807648 207 407.583099 207 L 91.841652 207 C 72.738617 207 58.412186 211.714722 48.860664 221.144531 C 39.309147 230.57428 34.533672 244.718445 34.533672 263.577972 L 34.533672 486.604584 C 34.533672 505.342285 39.309147 519.425781 48.860664 528.855469 C 58.412186 538.285278 72.738617 543 91.841652 543 Z"/>
</svg>

<svg width="500" height="750" viewBox="0 0 500 750" xmlns="http://www.w3.org/2000/svg" xmlns:xlink="http://www.w3.org/1999/xlink">
	<path id="Rettangolo" fill="#d5d5d5" fill-rule="evenodd" stroke="none" d="M0 750h500V0H0Z"/>
	<path id="frame" fill="#646464" fill-rule="evenodd" stroke="none" d="M92.2 513.8c-8.75 0-15.66-2.53-20.7-7.58-5.06-5.05-7.58-12.01-7.58-20.9V474.2l56.03-48.9a46.85 46.85 0 0 1 12.4-8.04 31.4 31.4 0 0 1 12.42-2.74c9.49 0 18.25 3.71 26.28 11.14l34.86 31.39 87.24-77.39c8.88-7.78 18.68-11.68 29.38-11.68 5 0 10.01.98 15.06 2.92a42.66 42.66 0 0 1 13.96 8.95l83.96 77.75v28.1c0 8.76-2.53 15.64-7.58 20.63-5.05 4.98-11.89 7.48-20.53 7.48Zm79.22-134.15a43.25 43.25 0 0 1-22.64-6.11 46.67 46.67 0 0 1-16.33-16.33 43.25 43.25 0 0 1-6.11-22.64c0-8.27 2.03-15.81 6.11-22.63a46.67 46.67 0 0 1 16.33-16.33 43.25 43.25 0 0 1 22.64-6.12c8.15 0 15.63 2.04 22.44 6.12a46.67 46.67 0 0 1 16.34 16.33 43.25 43.25 0 0 1 6.11 22.63c0 8.28-2.03 15.82-6.11 22.64a46.67 46.67 0 0 1-16.34 16.33 42.92 42.92 0 0 1-22.44 6.11ZM91.84 543h315.74c19.23 0 33.58-4.71 43.08-14.14 9.49-9.43 14.23-23.52 14.23-42.26V263.58c0-18.74-4.74-32.85-14.23-42.34-9.5-9.5-23.85-14.24-43.08-14.24H91.84c-19.1 0-33.43 4.71-42.98 14.14-9.55 9.43-14.33 23.58-14.33 42.44V486.6c0 18.74 4.78 32.83 14.33 42.26S72.74 543 91.84 543Z"/>
</svg>
